X:1
T:Non mi togl'il ben mio
T:Jean de Castro
T:Source : Chansons, madrigaux et motetz à 3 parties---Anvers---P.Phalèse---1582. Editor : André Vierendeels (01/02/16).
T:Notes : Original clefs : G2, C2, C3 Editorial accidentals above the staff Square bracket indicates ligature  
T:Non mi togl'il ben mio
T:©
T:©
T:©
T:©
T:©
T:©
T:©
T:©
C:Jean de Castro
Z:©
%%score [ 1 2 3 ]
L:1/8
Q:1/4=124
M:2/2
K:F
V:1 treble nm="Soprano 1" snm="S 1"
V:2 treble nm="Soprano 2" snm="S 2"
V:3 treble-8 nm="Tenor" snm="T"
V:1
 z8 | c8- | c4 A4 | d8 | c4 A4 | G4 A4- | A2 F2 AGAB | c8 | z4 c4- | c4 A4 | c4 d4- | d4 c4- | %12
w: |Non|_ mi|togl'|il ben|mi- *||o,|non|_ mi|togl' il|_ ben|
 c4 B4 | A2 GF G4 | A4 c4 | A2 d4 c2- |"^-natural" c2 B2 c4 | z2 c2 c2 f2- | f2 e4 d2 | e4 z2 c2 | %20
w: _ mi-||o, chi|non ar- de|_ d'a- mor,|chi non ar-|* de d'a-|mor, chi|
 A2 B2 c2 d2 | c4 A4 | G2 F2 G4 | A4 z2 c2 | f2 e2 d4 | c8 | z4 c4- | c4 c4 | d4 d4- | d4 d4 | %30
w: non ar- de d'a-|mor co-|me facc' i-|o, co-|me facc' i-|o,|ma|_ per-|che non|_ fia|
 c4 c4 | c2 d2 B4 | A4 z2 c2 | c4 d4 | e4 f4 | d6 c2 | B4 A4 | z4 d4 | A4 d4 | d4 c4 | B2 A2 A4- | %41
w: mai se|null' o po-|co, a-|gua- ge'il|mio gran|fo- *|* co,|se|non e'in|quest' a-|mo- * *|
 A2 GF G4 | A4 z2 f2 | f4 d4 | c8 | z4 f4 | f4 e4 | f4 z2 c2 | c4 G4 | G4 A4 | B8 | A4 z2 f2 | %52
w: |re, io|sol ha-|vro,|io|sol ha-|vro de|la mia|donn' il|co-|re, io|
 f4 d4 | c8 | z4 f4 | f4 e4 | f4 z2 c2 | c4 G4 | G4 A4 | B8 | A8 | c8- | c4 A4 | d8 | c4 A4 | %65
w: sol ha-|vro,|io|sol ha-|vro de|la mia|donn' il|co-|re,|dun-|* que|lass'|il ben|
 G4 A4- | A2 F2 AGAB | c8 | z4 c4- | c4 A4 | c4 d4- | d4 c4- | c4 B4 | A2 GF G4 | A4 c4 | %75
w: mi- *||o,|dun-|* que|lass' il|_ ben|_ mi-||o, chi|
 A2 d4 c2- | c2 B2 c4 | z2 c2 c2 f2- | f2 e4 d2 | e4 z2 c2 | A2 B2 c2 d2 | c4 A4 | G2 F2 G4 | %83
w: non ar- de|_ d'a- mor,|chi non ar-|* de d'a-|mor, chi|non ar- de d'a-|mor co-|me facc' i-|
 A4 z2 c2 | f2 e2 d4 | c4 A4 | G4 F4 | G8 | A8 |] %89
w: o, co-|me facc' i-|o, co-|me facc'|i-|o.|
V:2
 F8- | F4 E4 | F8 | D4 F4 | E8- | E4 F4 | z4 F4 | E4 F4 | D4 C4 | F8 | A8- | A4 A4 | G4 F4- | %13
w: Non|_ mi|togl'|il ben|mi-|* o,|non|mi togl'|il ben|mi-|o,|_ il|ben mi-|
 F4 E4 | F4 z2 G2 | F2 D2 F2 E2 | D2 G2 F2 G2- | G2 A4 FG |"^-natural" AB c4 B2 | c4 z2 A2 | %20
w: |o, chi|non ar- de d'a-|mor, chi non ar-|de d'a- * *||mor, chi|
 F2 F2 E2 D2 | E4 F4 | E2 F4 E2 | F4 A4 |"^-natural" A2 c4 B2 | c4 A4- | A4 G4 | A8 | B8- | B4 B4 | %30
w: non ar- de d'a-|mor co-|me facc' i-|o, co-|me facc' i-|o, ma|_ per-|che|non|_ fia|
 A4 A4 | A2 F3 E/D/ E2 | F8 | z2 A4 =B2- | B2 c2 A4 | B4 A4 | G4 z2 F2 | E4 F4 | F4 B4- | %39
w: mai se|null' o _ _ po-|co,|a- gua-|* ge'il mio|gran fo-|co, se|non e'in|quest' a-|
 B2 A2 G4 | F6 E2 | D8 | C4 F4 | A4 B4 | G4 z2 A2 | A4 F4 | G4 z2 c2 | c4 A4 | G2 G2 E3 F | %49
w: * * mo-|||re, io|sol ha-|vro, io|sol ha-|vro de|la mia|donn' il co- *|
 G2 C2 F4- | F2 ED E4 | F4 A4 | A4 B4 | G4 z2 A2 | A4 F4 | G4 z2 c2 | c4 A4 | G2 G2 E3 F | %58
w: ||re, io|sol ha-|vro, io|sol ha-|vro, io|sol ha-|vro de la mia|
 G2 C2 F4- | F2 ED E4 | F4 F4- | F4 E4 | F8 | D4 F4 | E8- | E4 F4 | z4 F4 | E4 F4 | D4 C4 | F8 | %70
w: donn' il co-||re, dun-|* que|lass'|il ben|mi-|* o,|dun-|que lass'|il ben|mi-|
 A8- | A4 A4 | G4 F4- | F4 E4 | F4 z2 G2 | F2 D2 F2 E2 | D2 G2 F2 G2- | G2 A4 FG | %78
w: o,|_ il|ben mi-||o, chi|non ar- de d'a-|mor, chi non ar-|* de d'a- *|
"^-natural" AB c4 B2 | c4 z2 A2 | F2 F2 E2 D2 | E4 F4 | E2 F4 E2 | F4 A4 | A2 c2 B4 | G4 z2 F2 | %86
w: |mor, chi|non ar- de d'a-|mor co-|me facc' i-|o, co-|me facc' i-|o, co-|
 E4 F4- | F4 E4 | F8 |] %89
w: me facc'|_ i-|o.|
V:3
 z8 | z8 | z8 | z8 | c8- | c4 A4 | d8 | c4 F4 | G4 A4 | z4 f4- | f4 d4 | f8 | e4 d4 | c4 c4 | %14
w: ||||Non|_ mi|togl'|il ben|mi- o,|non|_ mi|togl'-|il ben|mi- o,|
 z2 F4 c2 | d4 B2 c2 | G4 z2 c2- | c2 A2 f4 | d2 c2 g4 | z2 c4 A2 | d4 c2 B2 | c4 F4 | c2 d2 c4 | %23
w: chi non|ar- de d'a-|mor, chi|_ non ar-|de d'a- mor,|chi non|ar- de d'a-|mor co-|me facc' i-|
 F4 f4 | d2 c2 g4 | c4 f4- | f4 c4 | f8 | B8- | B4 B4 | F4 F4 | A2 B2 G4 | F8 | z2 f4 g2- | %34
w: o, co-|me facc' i-|o, ma|_ per-|che|non|_ fia|mai se|null' o po-|co,|a- guan-|
 g2 a2 d2 d2 | g4 d4 | z4 d4 | A4 d4 | d4 B4 | _e8 | d6 c2 | B8 | A4 d4 | d4 g4 | c4 z2 f2 | %45
w: * ge'il mio gran|fo- co,|se|non e'in|quest' a-|mo-|||re, io|sol ha-|vro, io|
 f4 d4 | c6 c2 | f4 F4 | c8- | c4 A4 | G8 | F4 f4 | d4 g4 | c4 z2 f2 | f4 d4 | c6 c2 | f4 F4 | %57
w: sol ha-|vro de|la mia|donn'|_ il|co-|re, io|sol ha-|vro, io|sol ha-|vro de|la mia|
 c8- | c4 A4 | G8 | F8 | z8 | z8 | z8 | c8- | c4 A4 | d8 | c4 F4 | G4 A4 | z4 f4- | f4 d4 | f8 | %72
w: donn'|_ il|co-|re,||||dun-|* que|lass'|il ben|mi- o,|dun-|* que|lass'|
 e4 d4 | c4 c4 | z2 F4 c2 | d4 B2 c2 | G4 z2 c2- | c2 A2 f4 | d2 c2 g4 | z2 c4 A2 | d4 c2 B2 | %81
w: il ben|mi- o,|chi non|ar- de d'a-|mor, chi|_ non ar-|de d'a- mor,|chi non|ar- de d'a-|
 c4 F4 | c2 d2 c4 | F4 f4 | d2 c2 f4 | c4 F4 | c4 d4 | c8 | F8 |] %89
w: mor co-|me facc' i-|o, co-|me facc' i-|o, co-|me facc'|i-|o.|

